resources/svg/brands/42-group.svg

<svg fill="currentColor" xmlns="http://www.w3.org/2000/svg" viewBox="0 0 640 512"><!--! Font Awesome Free 6.7.2 by @fontawesome - https://fontawesome.com License - https://fontawesome.com/license/free (Icons: CC BY 4.0, Fonts: SIL OFL 1.1, Code: MIT License) Copyright 2024 Fonticons, Inc. --><path d="M320 96V416C341.011 416 361.818 411.861 381.23 403.821C400.641 395.78 418.28 383.995 433.138 369.138C447.995 354.28 459.78 336.641 467.821 317.23C475.861 297.818 480 277.011 480 256C480 234.989 475.861 214.182 467.821 194.771C459.78 175.359 447.995 157.72 433.138 142.863C418.28 128.005 400.641 116.22 381.23 108.179C361.818 100.139 341.011 96 320 96ZM0 256L160.002 416L320.003 256L160.002 96L0 256ZM480 256C480 277.011 484.138 297.818 492.179 317.23C500.219 336.643 512.005 354.28 526.862 369.138C541.72 383.995 559.357 395.781 578.77 403.821C598.182 411.862 618.989 416 640 416V96C597.565 96 556.869 112.858 526.862 142.863C496.857 172.869 480 213.565 480 256Z"/></svg>

<svg fill="currentColor" xmlns="http://www.w3.org/2000/svg" viewBox="0 0 640 512"><!--! Font Awesome Free 7.0.0 by @fontawesome - https://fontawesome.com License - https://fontawesome.com/license/free (Icons: CC BY 4.0, Fonts: SIL OFL 1.1, Code: MIT License) Copyright 2025 Fonticons, Inc. --><path fill="currentColor" d="M320 96l0 320c21 0 41.8-4.1 61.2-12.2s37-19.8 51.9-34.7 26.6-32.5 34.7-51.9 12.2-40.2 12.2-61.2-4.1-41.8-12.2-61.2-19.8-37.1-34.7-51.9-32.5-26.6-51.9-34.7-40.2-12.2-61.2-12.2zM0 256L160 416 320 256 160 96 0 256zm480 0c0 21 4.1 41.8 12.2 61.2s19.8 37 34.7 51.9 32.5 26.6 51.9 34.7 40.2 12.2 61.2 12.2l0-320c-42.4 0-83.1 16.9-113.1 46.9S480 213.6 480 256z"/></svg>
